X:674
T:Repeal of the Union, The
T:Hen and Her Brood, The
R:reel
D:Tommy Keane & Jacqueline McCarthy: The Wind in the Reeds
D:Fintan Vallely: Traditional Irish Flute Music
Z:id:hn-reel-674
M:C|
K:Dmix
ADED ~A3G|E2cE dEcB|ADED ~A3G|E2cE EDD2:|
Adde fdec|ABcA dBcB|Adde fdcA|GEcE EDD2|
Adde fdec|ABcd eg~g2|afge fdcA|GEcE EDD2||
